X: 10998
T: Drunken Parson, The
R: jig
M: 6/8
K: Fmajor
F|:FAA GBB|FAA B2 d|FAA BGc|AFF F2 c|
FAA GBB|FAA B2 d|cBA GAB|AFF F2 F:|
|:FAc f2 _e/2 e/2|dBB B2 B|GBd g/2 g3/2 f|ecc c2 A|
FAc f2 _e/2 e/2|dBB B2 c/2B/2|AFF BGc|AFF F2 z:|

